src/public/images/logo.svg

<svg width="124" height="28" viewBox="0 0 124 28" fill="none" xmlns="http://www.w3.org/2000/svg">
<path d="M2.376 22C2.2 22 2.056 21.944 1.944 21.832C1.832 21.72 1.776 21.576 1.776 21.4V5.8C1.776 5.624 1.832 5.48 1.944 5.368C2.056 5.256 2.2 5.2 2.376 5.2H9.504C10.832 5.2 11.92 5.392 12.768 5.776C13.616 6.16 14.24 6.704 14.64 7.408C15.056 8.112 15.264 8.936 15.264 9.88C15.264 10.472 15.152 10.992 14.928 11.44C14.72 11.888 14.456 12.256 14.136 12.544C13.832 12.832 13.536 13.048 13.248 13.192C13.872 13.48 14.416 13.96 14.88 14.632C15.36 15.288 15.6 16.072 15.6 16.984C15.6 17.992 15.376 18.872 14.928 19.624C14.48 20.376 13.816 20.96 12.936 21.376C12.056 21.792 10.984 22 9.72 22H2.376ZM5.592 19.192H9.264C10.048 19.192 10.64 18.976 11.04 18.544C11.44 18.096 11.64 17.568 11.64 16.96C11.64 16.336 11.432 15.816 11.016 15.4C10.616 14.968 10.032 14.752 9.264 14.752H5.592V19.192ZM5.592 11.992H9.048C9.8 11.992 10.36 11.808 10.728 11.44C11.112 11.056 11.304 10.568 11.304 9.976C11.304 9.384 11.112 8.912 10.728 8.56C10.36 8.192 9.8 8.008 9.048 8.008H5.592V11.992ZM18.7995 22C18.6235 22 18.4795 21.944 18.3675 21.832C18.2555 21.72 18.1995 21.576 18.1995 21.4V5.56C18.1995 5.384 18.2555 5.24 18.3675 5.128C18.4795 5.016 18.6235 4.96 18.7995 4.96H21.1995C21.3595 4.96 21.4955 5.016 21.6075 5.128C21.7195 5.24 21.7755 5.384 21.7755 5.56V21.4C21.7755 21.576 21.7195 21.72 21.6075 21.832C21.4955 21.944 21.3595 22 21.1995 22H18.7995ZM28.4809 22.24C27.6329 22.24 26.8729 22.08 26.2009 21.76C25.5289 21.424 24.9929 20.976 24.5929 20.416C24.1929 19.856 23.9929 19.232 23.9929 18.544C23.9929 17.408 24.4489 16.512 25.3609 15.856C26.2889 15.2 27.5049 14.752 29.0089 14.512L32.1529 14.056V13.624C32.1529 13 32.0089 12.52 31.7209 12.184C31.4329 11.848 30.9289 11.68 30.2089 11.68C29.6809 11.68 29.2569 11.784 28.9369 11.992C28.6169 12.2 28.3689 12.472 28.1929 12.808C28.0649 13.016 27.8809 13.12 27.6409 13.12H25.3609C25.1849 13.12 25.0489 13.072 24.9529 12.976C24.8569 12.864 24.8169 12.736 24.8329 12.592C24.8329 12.32 24.9369 12 25.1449 11.632C25.3529 11.264 25.6729 10.904 26.1049 10.552C26.5369 10.184 27.0889 9.88 27.7609 9.64C28.4329 9.4 29.2569 9.28 30.2329 9.28C31.2409 9.28 32.1049 9.4 32.8249 9.64C33.5449 9.88 34.1209 10.216 34.5529 10.648C34.9849 11.08 35.3049 11.584 35.5129 12.16C35.7209 12.72 35.8249 13.328 35.8249 13.984V21.4C35.8249 21.576 35.7689 21.72 35.6569 21.832C35.5449 21.944 35.4009 22 35.2249 22H32.8729C32.7129 22 32.5769 21.944 32.4649 21.832C32.3529 21.72 32.2969 21.576 32.2969 21.4V20.512C32.0889 20.816 31.8089 21.104 31.4569 21.376C31.1049 21.632 30.6809 21.84 30.1849 22C29.7049 22.16 29.1369 22.24 28.4809 22.24ZM29.4409 19.744C29.9689 19.744 30.4409 19.632 30.8569 19.408C31.2729 19.184 31.6009 18.84 31.8409 18.376C32.0809 17.912 32.2009 17.328 32.2009 16.624V16.216L29.9689 16.576C29.1049 16.72 28.4729 16.936 28.0729 17.224C27.6729 17.512 27.4729 17.864 27.4729 18.28C27.4729 18.584 27.5609 18.848 27.7369 19.072C27.9289 19.296 28.1769 19.464 28.4809 19.576C28.7849 19.688 29.1049 19.744 29.4409 19.744ZM39.3068 22C39.1468 22 39.0108 21.944 38.8988 21.832C38.7868 21.72 38.7308 21.576 38.7308 21.4V10.12C38.7308 9.944 38.7868 9.8 38.8988 9.688C39.0108 9.576 39.1468 9.52 39.3068 9.52H41.6588C41.8348 9.52 41.9788 9.576 42.0908 9.688C42.2028 9.8 42.2588 9.944 42.2588 10.12V11.056C42.6748 10.544 43.2108 10.12 43.8668 9.784C44.5228 9.448 45.3228 9.28 46.2668 9.28C47.2108 9.28 48.0348 9.496 48.7388 9.928C49.4588 10.344 50.0188 10.96 50.4188 11.776C50.8348 12.576 51.0428 13.552 51.0428 14.704V21.4C51.0428 21.576 50.9788 21.72 50.8508 21.832C50.7388 21.944 50.6028 22 50.4427 22H47.8988C47.7228 22 47.5788 21.944 47.4668 21.832C47.3548 21.72 47.2988 21.576 47.2988 21.4V14.848C47.2988 14 47.0908 13.344 46.6748 12.88C46.2748 12.4 45.6828 12.16 44.8988 12.16C44.1468 12.16 43.5468 12.4 43.0988 12.88C42.6508 13.344 42.4268 14 42.4268 14.848V21.4C42.4268 21.576 42.3708 21.72 42.2588 21.832C42.1468 21.944 42.0108 22 41.8508 22H39.3068Z" fill="#262541"/>
<g clip-path="url(#clip0_29_2668)">
<path d="M66.4645 24.6412L66.2107 24.6311C63.0105 24.556 59.9672 23.2385 57.7324 20.9608C55.4976 18.6831 54.2489 15.6262 54.2538 12.4448C54.2538 5.72229 59.7475 0.252197 66.4987 0.252197C73.25 0.252197 78.7462 5.72229 78.7462 12.4448C78.7462 15.1578 77.7703 17.843 75.8464 20.4273C74.5992 22.0761 73.1264 23.5436 71.4708 24.7875C71.0139 25.1369 70.5406 25.4673 70.0673 25.7713C68.9278 26.5019 67.7215 27.1239 66.4645 27.6291V24.6412Z" fill="#262541"/>
<path d="M66.4987 0.504505C69.6812 0.51085 72.7312 1.77153 74.9796 4.00999C77.2281 6.24844 78.4914 9.28188 78.4924 12.4449C78.4924 15.1023 77.533 17.7422 75.6421 20.2773C74.4098 21.9074 72.9541 23.358 71.3172 24.587C70.8655 24.9314 70.3984 25.2593 69.9289 25.5595C68.9095 26.2141 67.8353 26.7804 66.7182 27.2521V24.8771V24.3915L66.2221 24.3802C63.087 24.308 60.1052 23.0182 57.9155 20.7872C55.7258 18.5562 54.5024 15.5615 54.5076 12.4449C54.5076 5.86108 59.887 0.504505 66.4987 0.504505ZM66.4987 0C63.2065 0.00523075 60.0489 1.29899 57.7095 3.60115C55.3701 5.90332 54.0371 9.02863 53.9992 12.3004C53.9614 15.5722 55.2216 18.7272 57.5071 21.0822C59.7926 23.4373 62.9195 24.8029 66.2106 24.8834V28C67.6083 27.4659 68.9466 26.7896 70.2043 25.982C70.6916 25.6709 71.1654 25.3392 71.6256 24.9868C73.2987 23.7256 74.7879 22.24 76.0507 20.5724C77.8185 18.2038 79 15.4429 79 12.4449C79.0015 10.8119 78.6793 9.19456 78.0518 7.68532C77.4244 6.17608 76.5039 4.80447 75.343 3.64883C74.1821 2.49318 72.8036 1.57614 71.286 0.950064C69.7685 0.323993 68.1418 0.00115889 66.4987 0V0Z" fill="white"/>
<path fill-rule="evenodd" clip-rule="evenodd" d="M66.4999 5.29482C62.533 5.29482 59.3172 8.49094 59.3172 12.4336C59.3172 16.3762 62.533 19.5723 66.4999 19.5723C70.4669 19.5723 73.6827 16.3762 73.6827 12.4336C73.6827 8.49094 70.4669 5.29482 66.4999 5.29482ZM58.6827 12.4336C58.6827 8.14265 62.1826 4.66418 66.4999 4.66418C70.8173 4.66418 74.3172 8.14265 74.3172 12.4336C74.3172 16.7245 70.8173 20.2029 66.4999 20.2029C62.1826 20.2029 58.6827 16.7245 58.6827 12.4336Z" fill="white"/>
<path d="M70.1434 9.58563C69.4156 8.66531 68.3623 8.05511 67.1979 7.87914V5.12959L69.4391 3.8822C70.5637 4.26198 71.6015 4.85956 72.4924 5.6404C72.5076 6.49722 72.522 7.35488 72.5355 8.21337L70.1434 9.58563Z" fill="white"/>
<path d="M69.4632 4.16221C70.4804 4.52074 71.4221 5.06293 72.2411 5.76149C72.2538 6.5317 72.2665 7.30233 72.2792 8.07339L70.2018 9.26654C69.4911 8.44248 68.5227 7.87932 67.4518 7.66726V5.27717L69.4632 4.16221ZM69.4124 3.6123L66.9442 4.98203V8.10239C67.5661 8.16476 68.1674 8.35892 68.7074 8.67178C69.2475 8.98465 69.7138 9.40895 70.0749 9.91609L72.7919 8.35717C72.7766 7.41375 72.761 6.47032 72.7449 5.5269L72.7386 5.51933C71.777 4.66086 70.6465 4.01019 69.4188 3.60852L69.4124 3.6123Z" fill="white"/>
<path d="M70.8071 14.1325C71.2357 13.0563 71.242 11.8594 70.8248 10.7788L73.2297 9.39771L75.4187 10.6867C75.5386 11.283 75.5965 11.8899 75.5913 12.4979C75.5878 13.0762 75.5278 13.6527 75.4124 14.2195L73.2043 15.5136L70.8071 14.1325Z" fill="white"/>
<path d="M73.2284 9.69029L75.1929 10.8469C75.2937 11.3914 75.3426 11.9442 75.3388 12.4979C75.3357 13.0223 75.2848 13.5453 75.1865 14.0606L74.7132 14.3368L74.0558 14.7152L73.7195 14.9132L73.2043 15.2134L71.1218 14.0164C71.4693 13.0038 71.4729 11.9058 71.132 10.891L73.2246 9.69029M73.2246 9.10506L70.5051 10.6703C70.7551 11.233 70.8827 11.8419 70.8794 12.457C70.8761 13.0721 70.7421 13.6796 70.486 14.2397L73.2056 15.8011L74.3122 15.1541L75.637 14.3784C75.9122 13.1084 75.9148 11.795 75.6447 10.524L73.2335 9.10254L73.2246 9.10506Z" fill="white"/>
<path d="M67.1979 19.7338V16.9855C68.3468 16.813 69.3885 16.2179 70.1167 15.3181L72.5152 16.6942L72.4911 17.8293L72.4619 19.257C71.5796 20.0219 70.5559 20.6088 69.4479 20.985L67.1979 19.7338Z" fill="white"/>
<path d="M70.1688 15.6397L72.2538 16.8354L72.2449 17.2138L72.2322 17.8192C72.2322 17.9945 72.2233 18.2833 72.217 18.576C72.217 18.774 72.2094 18.9733 72.2056 19.1372C71.8102 19.4707 71.3854 19.7683 70.9365 20.0264C70.4677 20.2982 69.9744 20.5262 69.4632 20.7075L68.4302 20.1311L67.4518 19.5862V17.1974C68.5054 16.9899 69.4605 16.4423 70.1688 15.6397ZM70.0419 14.9864C69.6806 15.4828 69.2179 15.8977 68.6841 16.2039C68.1502 16.5102 67.5573 16.7009 66.9442 16.7635V19.8826L69.4175 21.2599C70.6337 20.8612 71.754 20.2171 72.7081 19.368C72.7157 19.0124 72.7322 18.1862 72.7398 17.8306C72.7462 17.543 72.7589 16.9477 72.7678 16.5453L70.0457 14.9839L70.0419 14.9864Z" fill="white"/>
<path d="M63.5634 20.9887C62.457 20.6149 61.4343 20.031 60.552 19.2696L60.5228 17.8406C60.5152 17.5114 60.5063 17.0838 60.4999 16.7055L62.8959 15.3269C63.6254 16.224 64.6669 16.8167 65.8147 16.988V19.7338L63.5634 20.9887Z" fill="white"/>
<path d="M62.84 15.6511C63.5521 16.4508 64.5091 16.9955 65.5634 17.2012V19.5862L63.5329 20.7125C62.5335 20.3606 61.6065 19.8315 60.7969 19.1511C60.7969 18.9821 60.7969 18.7979 60.7867 18.6138C60.7804 18.3401 60.7753 18.0639 60.7702 17.8331C60.7702 17.548 60.7563 17.1873 60.7499 16.8468L62.8337 15.6511M62.9606 14.999L60.2436 16.5592C60.2512 16.9742 60.2614 17.4736 60.269 17.8457C60.2779 18.2985 60.2918 18.9342 60.3007 19.3857C60.7862 19.8156 61.3163 20.1931 61.8819 20.512C62.4236 20.8219 62.996 21.0755 63.59 21.2688L66.071 19.8889V16.7648C65.4568 16.705 64.8622 16.5168 64.3264 16.2125C63.7905 15.9082 63.3255 15.4946 62.9619 14.999H62.9606Z" fill="white"/>
<path d="M57.585 14.222C57.3513 13.0544 57.3491 11.8526 57.5786 10.6842L58.8667 9.92743L59.7779 9.39014L62.1789 10.7649C61.7549 11.8538 61.7612 13.0619 62.1966 14.1464L59.8032 15.5136L57.585 14.222Z" fill="white"/>
<path d="M59.7791 9.67898L61.868 10.8784C61.5216 11.9022 61.527 13.0112 61.8832 14.0316L59.8045 15.2247L58.8477 14.6647L57.8071 14.0631C57.6955 13.4694 57.6457 12.8659 57.6586 12.262C57.6701 11.7871 57.7197 11.3139 57.8071 10.8469L58.9962 10.1456L59.7804 9.68276M59.7804 9.09753C58.972 9.57429 58.1611 10.051 57.3553 10.5278C57.0898 11.801 57.0924 13.1151 57.3629 14.3873L59.8058 15.815L62.5177 14.2523C62.2586 13.6886 62.1232 13.0764 62.1206 12.4566C62.1179 11.8368 62.2481 11.2236 62.5025 10.6577L59.7766 9.09375L59.7804 9.09753Z" fill="white"/>
<path d="M60.472 8.1982C60.472 8.1982 60.4885 7.19676 60.4911 7.05676C60.4911 6.75405 60.5088 6.01369 60.5152 5.62649C61.4079 4.84892 62.447 4.25517 63.5723 3.87964L65.8185 5.12955V7.87658C64.6521 8.04781 63.5957 8.65557 62.8654 9.57549L60.472 8.1982Z" fill="white"/>
<path d="M63.5469 4.15465L64.585 4.7323L65.5634 5.27843V7.66348C64.492 7.87121 63.5215 8.42985 62.8071 9.25014L60.7259 8.05951C60.7259 7.94347 60.7259 7.82365 60.7259 7.70636C60.7259 7.45411 60.7335 7.20185 60.736 7.06816C60.736 6.79194 60.7525 6.15248 60.7589 5.74762C61.5801 5.04845 62.5257 4.50816 63.5469 4.15465ZM63.599 3.60474C62.3642 4.00165 61.2278 4.65322 60.2639 5.51681C60.2639 5.8523 60.2449 6.72257 60.2386 7.05807C60.2386 7.32672 60.2233 7.94095 60.217 8.34708L62.9327 9.90474C63.2955 9.39833 63.7634 8.97516 64.3048 8.66381C64.8462 8.35245 65.4485 8.16015 66.071 8.09987V4.98203L63.599 3.60474Z" fill="white"/>
</g>
<path d="M82.376 22C82.2 22 82.056 21.944 81.944 21.832C81.832 21.72 81.776 21.576 81.776 21.4V5.8C81.776 5.624 81.832 5.48 81.944 5.368C82.056 5.256 82.2 5.2 82.376 5.2H89.504C90.832 5.2 91.92 5.392 92.768 5.776C93.616 6.16 94.24 6.704 94.64 7.408C95.056 8.112 95.264 8.936 95.264 9.88C95.264 10.472 95.152 10.992 94.928 11.44C94.72 11.888 94.456 12.256 94.136 12.544C93.832 12.832 93.536 13.048 93.248 13.192C93.872 13.48 94.416 13.96 94.88 14.632C95.36 15.288 95.6 16.072 95.6 16.984C95.6 17.992 95.376 18.872 94.928 19.624C94.48 20.376 93.816 20.96 92.936 21.376C92.056 21.792 90.984 22 89.72 22H82.376ZM85.592 19.192H89.264C90.048 19.192 90.64 18.976 91.04 18.544C91.44 18.096 91.64 17.568 91.64 16.96C91.64 16.336 91.432 15.816 91.016 15.4C90.616 14.968 90.032 14.752 89.264 14.752H85.592V19.192ZM85.592 11.992H89.048C89.8 11.992 90.36 11.808 90.728 11.44C91.112 11.056 91.304 10.568 91.304 9.976C91.304 9.384 91.112 8.912 90.728 8.56C90.36 8.192 89.8 8.008 89.048 8.008H85.592V11.992ZM101.872 22.24C101.024 22.24 100.264 22.08 99.5915 21.76C98.9195 21.424 98.3835 20.976 97.9835 20.416C97.5835 19.856 97.3835 19.232 97.3835 18.544C97.3835 17.408 97.8395 16.512 98.7515 15.856C99.6795 15.2 100.896 14.752 102.4 14.512L105.544 14.056V13.624C105.544 13 105.4 12.52 105.112 12.184C104.824 11.848 104.32 11.68 103.6 11.68C103.072 11.68 102.648 11.784 102.328 11.992C102.008 12.2 101.76 12.472 101.584 12.808C101.456 13.016 101.272 13.12 101.032 13.12H98.7515C98.5755 13.12 98.4395 13.072 98.3435 12.976C98.2475 12.864 98.2075 12.736 98.2235 12.592C98.2235 12.32 98.3275 12 98.5355 11.632C98.7435 11.264 99.0635 10.904 99.4955 10.552C99.9275 10.184 100.48 9.88 101.152 9.64C101.824 9.4 102.648 9.28 103.624 9.28C104.632 9.28 105.496 9.4 106.216 9.64C106.936 9.88 107.512 10.216 107.944 10.648C108.376 11.08 108.696 11.584 108.904 12.16C109.112 12.72 109.216 13.328 109.216 13.984V21.4C109.216 21.576 109.16 21.72 109.048 21.832C108.936 21.944 108.792 22 108.616 22H106.264C106.104 22 105.968 21.944 105.856 21.832C105.744 21.72 105.688 21.576 105.688 21.4V20.512C105.48 20.816 105.2 21.104 104.848 21.376C104.496 21.632 104.072 21.84 103.576 22C103.095 22.16 102.528 22.24 101.872 22.24ZM102.832 19.744C103.36 19.744 103.832 19.632 104.248 19.408C104.664 19.184 104.992 18.84 105.232 18.376C105.472 17.912 105.592 17.328 105.592 16.624V16.216L103.36 16.576C102.496 16.72 101.864 16.936 101.464 17.224C101.064 17.512 100.864 17.864 100.864 18.28C100.864 18.584 100.952 18.848 101.128 19.072C101.32 19.296 101.568 19.464 101.872 19.576C102.176 19.688 102.496 19.744 102.832 19.744ZM112.721 22C112.545 22 112.401 21.944 112.289 21.832C112.177 21.72 112.121 21.576 112.121 21.4V5.56C112.121 5.384 112.177 5.24 112.289 5.128C112.401 5.016 112.545 4.96 112.721 4.96H115.121C115.281 4.96 115.417 5.016 115.529 5.128C115.641 5.24 115.697 5.384 115.697 5.56V21.4C115.697 21.576 115.641 21.72 115.529 21.832C115.417 21.944 115.281 22 115.121 22H112.721ZM119.331 22C119.155 22 119.011 21.944 118.899 21.832C118.787 21.72 118.731 21.576 118.731 21.4V5.56C118.731 5.384 118.787 5.24 118.899 5.128C119.011 5.016 119.155 4.96 119.331 4.96H121.731C121.891 4.96 122.027 5.016 122.139 5.128C122.251 5.24 122.307 5.384 122.307 5.56V21.4C122.307 21.576 122.251 21.72 122.139 21.832C122.027 21.944 121.891 22 121.731 22H119.331Z" fill="#262541"/>
<defs>
<clipPath id="clip0_29_2668">
<rect width="25" height="28" fill="white" transform="translate(54)"/>
</clipPath>
</defs>
</svg>

<svg xmlns="http://www.w3.org/2000/svg" width="124" height="28" fill="none"><path fill="#262541" d="M2.376 22a.585.585 0 0 1-.432-.168.585.585 0 0 1-.168-.432V5.8c0-.176.056-.32.168-.432a.585.585 0 0 1 .432-.168h7.128c1.328 0 2.416.192 3.264.576.848.384 1.472.928 1.872 1.632.416.704.624 1.528.624 2.472 0 .592-.112 1.112-.336 1.56a3.37 3.37 0 0 1-.792 1.104c-.304.288-.6.504-.888.648.624.288 1.168.768 1.632 1.44.48.656.72 1.44.72 2.352 0 1.008-.224 1.888-.672 2.64-.448.752-1.112 1.336-1.992 1.752-.88.416-1.952.624-3.216.624H2.376Zm3.216-2.808h3.672c.784 0 1.376-.216 1.776-.648.4-.448.6-.976.6-1.584 0-.624-.208-1.144-.624-1.56-.4-.432-.984-.648-1.752-.648H5.592v4.44Zm0-7.2h3.456c.752 0 1.312-.184 1.68-.552.384-.384.576-.872.576-1.464s-.192-1.064-.576-1.416c-.368-.368-.928-.552-1.68-.552H5.592v3.984ZM18.799 22a.585.585 0 0 1-.431-.168.585.585 0 0 1-.168-.432V5.56c0-.176.056-.32.168-.432a.585.585 0 0 1 .431-.168h2.4c.16 0 .296.056.409.168a.585.585 0 0 1 .168.432V21.4c0 .176-.056.32-.168.432a.555.555 0 0 1-.409.168h-2.4Zm9.682.24c-.848 0-1.608-.16-2.28-.48-.672-.336-1.208-.784-1.608-1.344-.4-.56-.6-1.184-.6-1.872 0-1.136.456-2.032 1.368-2.688.928-.656 2.144-1.104 3.648-1.344l3.144-.456v-.432c0-.624-.144-1.104-.432-1.44-.288-.336-.792-.504-1.512-.504-.528 0-.952.104-1.272.312-.32.208-.568.48-.744.816a.612.612 0 0 1-.552.312h-2.28c-.176 0-.312-.048-.408-.144a.485.485 0 0 1-.12-.384c0-.272.104-.592.312-.96.208-.368.528-.728.96-1.08.432-.368.984-.672 1.656-.912.672-.24 1.496-.36 2.472-.36 1.008 0 1.872.12 2.592.36s1.296.576 1.728 1.008c.432.432.752.936.96 1.512.208.56.312 1.168.312 1.824V21.4c0 .176-.056.32-.168.432a.585.585 0 0 1-.432.168h-2.352a.555.555 0 0 1-.408-.168.585.585 0 0 1-.168-.432v-.888a3.87 3.87 0 0 1-.84.864 4.491 4.491 0 0 1-1.272.624c-.48.16-1.048.24-1.704.24Zm.96-2.496c.528 0 1-.112 1.416-.336.416-.224.744-.568.984-1.032.24-.464.36-1.048.36-1.752v-.408l-2.232.36c-.864.144-1.496.36-1.896.648-.4.288-.6.64-.6 1.056 0 .304.088.568.264.792.192.224.44.392.744.504.304.112.624.168.96.168ZM39.307 22a.555.555 0 0 1-.408-.168.585.585 0 0 1-.168-.432V10.12c0-.176.056-.32.168-.432a.555.555 0 0 1 .408-.168h2.352c.176 0 .32.056.432.168a.585.585 0 0 1 .168.432v.936c.416-.512.952-.936 1.608-1.272.656-.336 1.456-.504 2.4-.504s1.768.216 2.472.648c.72.416 1.28 1.032 1.68 1.848.416.8.624 1.776.624 2.928V21.4c0 .176-.064.32-.192.432a.556.556 0 0 1-.408.168h-2.544a.585.585 0 0 1-.432-.168.585.585 0 0 1-.168-.432v-6.552c0-.848-.208-1.504-.624-1.968-.4-.48-.992-.72-1.776-.72-.752 0-1.352.24-1.8.72-.448.464-.672 1.12-.672 1.968V21.4c0 .176-.056.32-.168.432a.555.555 0 0 1-.408.168h-2.544Z"/><g clip-path="url(#a)"><path fill="#262541" d="m66.465 24.641-.254-.01a12.282 12.282 0 0 1-8.479-3.67 12.132 12.132 0 0 1-3.478-8.516c0-6.723 5.494-12.193 12.245-12.193 6.751 0 12.247 5.47 12.247 12.193 0 2.713-.976 5.398-2.9 7.982a22.225 22.225 0 0 1-4.375 4.36c-.457.35-.93.68-1.404.984a21.596 21.596 0 0 1-3.602 1.858v-2.988Z"/><path fill="#fff" d="M66.499.505a12.055 12.055 0 0 1 8.48 3.505 11.907 11.907 0 0 1 3.513 8.435c0 2.657-.959 5.297-2.85 7.832a21.918 21.918 0 0 1-4.325 4.31 21.216 21.216 0 0 1-4.599 2.665v-2.86l-.496-.012a12.027 12.027 0 0 1-8.306-3.593 11.88 11.88 0 0 1-3.408-8.342c0-6.584 5.379-11.94 11.99-11.94Zm0-.505a12.56 12.56 0 0 0-8.79 3.601 12.407 12.407 0 0 0-3.71 8.7 12.403 12.403 0 0 0 3.508 8.781 12.556 12.556 0 0 0 8.704 3.801V28a21.78 21.78 0 0 0 5.415-3.013 22.659 22.659 0 0 0 4.425-4.415C77.818 18.204 79 15.442 79 12.445c.001-1.633-.32-3.25-.948-4.76a12.427 12.427 0 0 0-2.709-4.036A12.515 12.515 0 0 0 71.286.95 12.577 12.577 0 0 0 66.499 0Z"/><path fill="#fff" fill-rule="evenodd" d="M66.5 5.295c-3.967 0-7.183 3.196-7.183 7.139 0 3.942 3.216 7.138 7.183 7.138 3.967 0 7.183-3.196 7.183-7.138 0-3.943-3.216-7.14-7.183-7.14Zm-7.817 7.139c0-4.291 3.5-7.77 7.817-7.77s7.817 3.479 7.817 7.77c0 4.29-3.5 7.769-7.817 7.769s-7.817-3.479-7.817-7.77Z" clip-rule="evenodd"/><path fill="#fff" d="M70.143 9.586a4.638 4.638 0 0 0-2.945-1.707V5.13l2.241-1.247a9.002 9.002 0 0 1 3.053 1.758c.016.857.03 1.715.043 2.573l-2.392 1.373Z"/><path fill="#fff" d="M69.463 4.162c1.017.359 1.96.9 2.778 1.6l.038 2.311-2.077 1.194a4.884 4.884 0 0 0-2.75-1.6v-2.39l2.011-1.115Zm-.05-.55-2.469 1.37v3.12a4.392 4.392 0 0 1 3.13 1.814l2.718-1.559-.047-2.83-.006-.008a9.35 9.35 0 0 0-3.32-1.91l-.007.003ZM70.807 14.133a4.591 4.591 0 0 0 .018-3.354l2.405-1.381 2.189 1.289c.12.596.178 1.203.172 1.81a8.899 8.899 0 0 1-.179 1.723l-2.208 1.294-2.397-1.381Z"/><path fill="#fff" d="m73.228 9.69 1.965 1.157a8.74 8.74 0 0 1-.007 3.214l-.473.276-.657.378-.337.198-.515.3-2.082-1.197a4.859 4.859 0 0 0 .01-3.125l2.093-1.2m0-.586-2.72 1.565a4.343 4.343 0 0 1-.019 3.57l2.72 1.561 1.106-.647 1.325-.776a9.184 9.184 0 0 0 .008-3.854l-2.411-1.421-.01.002ZM67.198 19.734v-2.749a4.64 4.64 0 0 0 2.919-1.667l2.398 1.376-.024 1.135-.03 1.428a9.036 9.036 0 0 1-3.013 1.728l-2.25-1.251Z"/><path fill="#fff" d="m70.169 15.64 2.085 1.195-.01.379-.012.605c0 .175-.009.464-.015.757 0 .198-.008.397-.011.561-.396.334-.82.631-1.27.89-.468.271-.962.5-1.473.68l-1.033-.576-.978-.545v-2.389a4.881 4.881 0 0 0 2.717-1.557Zm-.127-.654a4.393 4.393 0 0 1-3.098 1.777v3.12l2.474 1.377a9.314 9.314 0 0 0 3.29-1.892l.032-1.537.028-1.286-2.722-1.561-.004.002ZM63.563 20.989a9.036 9.036 0 0 1-3.011-1.72l-.03-1.428c-.007-.33-.016-.757-.022-1.136l2.396-1.378a4.645 4.645 0 0 0 2.919 1.661v2.746l-2.252 1.255Z"/><path fill="#fff" d="M62.84 15.651c.712.8 1.67 1.345 2.723 1.55v2.385l-2.03 1.127a8.79 8.79 0 0 1-2.736-1.562c0-.169 0-.353-.01-.537-.007-.274-.012-.55-.017-.78 0-.286-.014-.647-.02-.987l2.084-1.196M62.96 15l-2.717 1.56c.007.415.017.915.025 1.287l.032 1.54c.485.43 1.015.807 1.58 1.126.543.31 1.115.564 1.709.757l2.481-1.38v-3.124a4.395 4.395 0 0 1-3.11-1.766ZM57.585 14.222a9.094 9.094 0 0 1-.006-3.538l1.288-.757.91-.537 2.402 1.375a4.596 4.596 0 0 0 .018 3.381l-2.394 1.368-2.218-1.292Z"/><path fill="#fff" d="m59.78 9.679 2.088 1.2a4.849 4.849 0 0 0 .015 3.153l-2.079 1.193-.956-.56-1.04-.602a8.739 8.739 0 0 1 0-3.216l1.188-.701.784-.463m0-.585c-.808.476-1.619.953-2.425 1.43a9.364 9.364 0 0 0 .008 3.86l2.443 1.427 2.712-1.563a4.343 4.343 0 0 1-.016-3.594l-2.725-1.564.003.004ZM60.472 8.198l.02-1.141c0-.303.017-1.043.023-1.43a8.984 8.984 0 0 1 3.057-1.747l2.246 1.25v2.747a4.628 4.628 0 0 0-2.953 1.698l-2.393-1.377Z"/><path fill="#fff" d="m63.547 4.155 1.038.577.978.546v2.385a4.888 4.888 0 0 0-2.756 1.587l-2.081-1.19v-.354c0-.252.008-.504.01-.638 0-.276.017-.916.023-1.32a8.681 8.681 0 0 1 2.788-1.593Zm.052-.55a9.23 9.23 0 0 0-3.335 1.912c0 .335-.02 1.206-.025 1.541 0 .269-.016.883-.022 1.29l2.716 1.557c.362-.507.83-.93 1.372-1.241A4.392 4.392 0 0 1 66.07 8.1V4.982l-2.472-1.377Z"/></g><path fill="#262541" d="M82.376 22a.585.585 0 0 1-.432-.168.585.585 0 0 1-.168-.432V5.8c0-.176.056-.32.168-.432a.585.585 0 0 1 .432-.168h7.128c1.328 0 2.416.192 3.264.576.848.384 1.472.928 1.872 1.632.416.704.624 1.528.624 2.472 0 .592-.112 1.112-.336 1.56a3.37 3.37 0 0 1-.792 1.104c-.304.288-.6.504-.888.648.624.288 1.168.768 1.632 1.44.48.656.72 1.44.72 2.352 0 1.008-.224 1.888-.672 2.64-.448.752-1.112 1.336-1.992 1.752-.88.416-1.952.624-3.216.624h-7.344Zm3.216-2.808h3.672c.784 0 1.376-.216 1.776-.648.4-.448.6-.976.6-1.584 0-.624-.208-1.144-.624-1.56-.4-.432-.984-.648-1.752-.648h-3.672v4.44Zm0-7.2h3.456c.752 0 1.312-.184 1.68-.552.384-.384.576-.872.576-1.464s-.192-1.064-.576-1.416c-.368-.368-.928-.552-1.68-.552h-3.456v3.984Zm16.28 10.248c-.848 0-1.608-.16-2.28-.48-.672-.336-1.209-.784-1.608-1.344-.4-.56-.6-1.184-.6-1.872 0-1.136.456-2.032 1.367-2.688.928-.656 2.145-1.104 3.649-1.344l3.144-.456v-.432c0-.624-.144-1.104-.432-1.44-.288-.336-.792-.504-1.512-.504-.528 0-.952.104-1.272.312-.32.208-.568.48-.744.816a.612.612 0 0 1-.552.312h-2.28c-.176 0-.313-.048-.408-.144a.485.485 0 0 1-.12-.384c0-.272.103-.592.311-.96.209-.368.529-.728.96-1.08.432-.368.985-.672 1.657-.912s1.496-.36 2.472-.36c1.008 0 1.872.12 2.592.36s1.296.576 1.728 1.008c.432.432.752.936.96 1.512.208.56.312 1.168.312 1.824V21.4c0 .176-.056.32-.168.432a.585.585 0 0 1-.432.168h-2.352a.555.555 0 0 1-.408-.168.585.585 0 0 1-.168-.432v-.888a3.87 3.87 0 0 1-.84.864 4.491 4.491 0 0 1-1.272.624c-.481.16-1.048.24-1.704.24Zm.96-2.496c.528 0 1-.112 1.416-.336.416-.224.744-.568.984-1.032.24-.464.36-1.048.36-1.752v-.408l-2.232.36c-.864.144-1.496.36-1.896.648-.4.288-.6.64-.6 1.056 0 .304.088.568.264.792.192.224.44.392.744.504.304.112.624.168.96.168ZM112.721 22a.585.585 0 0 1-.432-.168.585.585 0 0 1-.168-.432V5.56c0-.176.056-.32.168-.432a.585.585 0 0 1 .432-.168h2.4c.16 0 .296.056.408.168a.585.585 0 0 1 .168.432V21.4c0 .176-.056.32-.168.432a.555.555 0 0 1-.408.168h-2.4Zm6.61 0a.585.585 0 0 1-.432-.168.585.585 0 0 1-.168-.432V5.56c0-.176.056-.32.168-.432a.585.585 0 0 1 .432-.168h2.4c.16 0 .296.056.408.168a.585.585 0 0 1 .168.432V21.4c0 .176-.056.32-.168.432a.555.555 0 0 1-.408.168h-2.4Z"/><defs><clipPath id="a"><path fill="#fff" d="M54 0h25v28H54z"/></clipPath></defs></svg>
